symbolic/22x22/places/folder-black-sync.svg

<svg xmlns="http://www.w3.org/2000/svg" width="22" height="22" version="1">
 <rect style="opacity:0.2" width="20" height="12" x="1" y="8.5" rx="1" ry="1"/>
 <path style="fill:#3f3f3f" d="M 1,16 C 1,16.554 1.446,17 2,17 H 20 C 20.554,17 21,16.554 21,16 V 5 C 21,4.446 20.554,4 20,4 H 11 C 9.5,4 9,2 7.5,2 H 2 C 1.446,2 1,2.446 1,3"/>
 <rect style="opacity:0.2" width="20" height="12" x="1" y="7.5" rx="1" ry="1"/>
 <rect style="fill:#dcdcdc" width="16" height="8" x="3" y="6" rx="1" ry="1"/>
 <rect style="fill:#4f4f4f" width="20" height="12" x="1" y="8" rx="1" ry="1"/>
 <path style="opacity:0.1;fill:#ffffff" d="M 2,2 C 1.446,2 1,2.446 1,3 V 3.5 C 1,2.946 1.446,2.5 2,2.5 H 7.5 C 9,2.5 9.5,4.5 11,4.5 H 20 C 20.554,4.5 21,4.946 21,5.5 V 5 C 21,4.446 20.554,4 20,4 H 11 C 9.5,4 9,2 7.5,2 Z"/>
 <path style="fill:#c2c2c2" d="m 11,10 c -0.754845,0.0016 -1.48894,0.247229 -2.0927741,0.700195 l 0.7158211,0.71582 C 10.031365,11.145444 10.510171,11.000783 11,11 c 1.209502,0 2.218585,0.858848 2.450195,2 H 12.5 L 14,15.5 15.5,13 H 14.459961 C 14.216612,11.304684 12.762645,10 11,10 Z M 7.9999999,11.5 6.5000001,14 h 1.040039 C 7.7833869,15.695315 9.237355,17 11,17 c 0.754845,-0.0016 1.48894,-0.247229 2.092773,-0.700196 l -0.71582,-0.71582 C 11.968635,15.854556 11.489829,15.999217 11,16 9.790498,16 8.7814149,15.141152 8.5498039,14 H 9.5 Z"/>
</svg>

<svg xmlns="http://www.w3.org/2000/svg" width="22" height="22" version="1"><rect style="opacity:.2" width="20" height="12" x="1" y="8.5" rx="1" ry="1"/><path style="fill:#3f3f3f" d="M1 16c0 .554.446 1 1 1h18c.554 0 1-.446 1-1V5c0-.554-.446-1-1-1h-9C9.5 4 9 2 7.5 2H2c-.554 0-1 .446-1 1"/><rect style="opacity:.2" width="20" height="12" x="1" y="7.5" rx="1" ry="1"/><rect style="fill:#dcdcdc" width="16" height="8" x="3" y="6" rx="1" ry="1"/><rect style="fill:#4f4f4f" width="20" height="12" x="1" y="8" rx="1" ry="1"/><path style="opacity:.1;fill:#fff" d="M2 2c-.554 0-1 .446-1 1v.5c0-.554.446-1 1-1h5.5c1.5 0 2 2 3.5 2h9c.554 0 1 .446 1 1V5c0-.554-.446-1-1-1h-9C9.5 4 9 2 7.5 2z"/><path style="fill:#c2c2c2" d="M11 10a3.5 3.5 0 0 0-2.093.7l.716.716A2.501 2.501 0 0 1 13.45 13h-.95l1.5 2.5 1.5-2.5h-1.04A3.498 3.498 0 0 0 11 10zm-3 1.5L6.5 14h1.04A3.498 3.498 0 0 0 11 17a3.5 3.5 0 0 0 2.093-.7l-.716-.716A2.501 2.501 0 0 1 8.55 14h.95z"/></svg>
